X: 1
T: Leathern Bottle,The. RH.339
M: 2/4
L: 1/8
Q: 400
S: Rev.R.Harrison's MS,c1815,Cumbria
R: Country Dance
O: England
A: Temple Sowerby, Cumbria
Z: vmp.Simon Wilson..
K: D Major
|: AF |
D2 FA D2 FA | dfed dcBA | dfdf dfed | cABc d2 :|
|: cd | 
e2 cA e2 cA | gfed cBAG | FGAB Afed | cABc d2 :|]
